X: 28076
T: Mr Nelson's Birthday
R: waltz
M: 3/4
K: Gmajor
|:D2 B2 B2|D2 B2 Bc|B2 A2 A2|A2 A2 A2|
D2 A2 A2|D2 A2 AB|A2 G2 G2|G2 G2 B2|
c2 c2 c2|c2 cB AG|B2 A2 A2|A2 A2 B2|
[1c2 c2 c2|c2 cB AG|G2 F2 F2|F2 F2 G2:|
[2c2 ed cB|A2 cB AG|G2 F2 F2|F2 F2 F2||
G2 GA Bc|d2 d2 de|B2 A2 A2|A2 A2 A2|
F2 FG AB|c2 c2 ce|A2 G2 G2|G2 G2 B2|
c2 c2 c2|c2 cB AG|B2 A2 A2|A2 A2 B2|
c2 c2 c2|c2 cB AG|GF A2 A2|A2 A2 A2||
G2 GA Bc|d2 de g2|B2 A2 A2|A2 A2 A2|
F2 FG AB|c2 c2 ce|A2 G2 G2|G2 G2 B2|
c2 c2 c2|c2 cB AG|B2 A2 A2|A2 A2 B2|
c2 ed cB|A2 cB AG|G2 F2 F2|F2 F2 F2||
|:G2 g2 g2|d2 dc BA|AG B2 B2|B2 B2 B2|
G2 g2 g2|d2 dc BA|AG G2 G2|G2 G2 G2:|

